Origami/48x48/apps/xmoto.svg

<svg width="48" height="48" version="1.1" viewBox="0 0 48 48" xmlns="http://www.w3.org/2000/svg">
 <path d="m24.960266 4.9999994c-12.09874 0-18.567268 8.7812096-19.73607 18.363404-0.8047432 6.597524 0.6717019 12.773324 2.6012309 16.89132 2.8252285 5.268766 3.5737805 5.571889 8.0073465 3.695404 9.009452-3.815974 17.979653-8.220415 24.827885-11.898947 2.624096-1.409535 2.466814-7.08691 2.198988-10.38495-0.667887-8.224455-5.800642-16.666231-17.89938-16.666231z" style="opacity:.2"/>
 <path d="m24.960266 3.9999998c-12.09874 0-18.567268 8.7812092-19.73607 18.363403-0.8047432 6.597524 0.6717019 12.773324 2.6012309 16.89132 2.8252285 5.268766 3.5737805 5.571889 8.0073465 3.695404 9.009452-3.815974 17.979653-8.220415 24.827885-11.898947 2.624096-1.409535 2.466814-7.08691 2.198988-10.38495-0.667887-8.224455-5.800642-16.66623-17.89938-16.66623z" style="fill:#f4b932"/>
 <path d="m24.960938 4c-12.09874 0-18.567526 8.781087-19.736329 18.363281-0.2026276 1.661201-0.260565 3.295343-0.203125 4.876953-0.006514-1.269584 0.0425869-2.560814 0.203125-3.876953 1.1688029-9.582194 7.6375886-18.363281 19.736329-18.363281 12.098737 0 17.23055 8.441561 17.898437 16.666016 0.059448 0.732044 0.107605 1.590572 0.126953 2.484375 0.014036-1.255538-0.04554-2.481843-0.126953-3.484375-0.667887-8.224455-5.7997-16.666016-17.898437-16.666016z" style="fill:#ffffff;opacity:.2"/>
 <path d="m22.000379 16.000884c-0.25589 0.0079-0.507769 0.06864-0.741162 0.178758-3.013834 1.20898-4.63279 2.581266-8.097611 3.026867-2.028791 0.260916-4.9393725 0.313239-6.964679 0.06234-1.1638684-0.160693-2.1969518 0.787621-2.196927 2.016656v8.681023c3.346e-4 1.146929 0.9058541 2.066777 2.0008851 2.032547 3.1414633-0.242247 6.3813299-0.636972 9.3209559-1.677377 0 0 8.678159-2.917902 8.678159-12.286942 3.58e-4 -1.146913-0.904584-2.067354-1.999621-2.033872z" style="fill:#444444"/>
 <circle cx="21" cy="21" r="2" style="opacity:.2"/>
 <circle cx="21" cy="20" r="2" style="fill:#ffffff"/>
</svg>

<svg xmlns="http://www.w3.org/2000/svg" width="48" height="48" version="1.1" viewBox="0 0 48 48">
 <path style="opacity:0.2" d="m 24.960266,4.9999994 c -12.09874,0 -18.5672675,8.7812096 -19.7360704,18.3634036 -0.8047432,6.597524 0.6717019,12.773324 2.6012309,16.89132 2.8252285,5.268766 3.5737805,5.571889 8.0073465,3.695404 9.009452,-3.815974 17.979653,-8.220415 24.827885,-11.898947 2.624096,-1.409535 2.466814,-7.08691 2.198988,-10.38495 C 42.191759,13.441775 37.059004,4.9999994 24.960266,4.9999994 Z"/>
 <path style="fill:#f4b932" d="m 24.960266,3.9999998 c -12.09874,0 -18.5672675,8.7812092 -19.7360704,18.3634032 -0.8047432,6.597524 0.6717019,12.773324 2.6012309,16.89132 2.8252285,5.268766 3.5737805,5.571889 8.0073465,3.695404 9.009452,-3.815974 17.979653,-8.220415 24.827885,-11.898947 2.624096,-1.409535 2.466814,-7.08691 2.198988,-10.38495 C 42.191759,12.441775 37.059004,3.9999998 24.960266,3.9999998 Z"/>
 <path style="opacity:0.2;fill:#ffffff" d="M 24.960938 4 C 12.862198 4 6.3934123 12.781087 5.2246094 22.363281 C 5.0219818 24.024482 4.9640444 25.658624 5.0214844 27.240234 C 5.0149704 25.97065 5.0640713 24.67942 5.2246094 23.363281 C 6.3934123 13.781087 12.862198 5 24.960938 5 C 37.059675 5 42.191488 13.441561 42.859375 21.666016 C 42.918823 22.39806 42.96698 23.256588 42.986328 24.150391 C 43.000364 22.894853 42.940788 21.668548 42.859375 20.666016 C 42.191488 12.441561 37.059675 4 24.960938 4 z"/>
 <path style="fill:#444444" d="m 22.000379,16.000884 c -0.25589,0.0079 -0.507769,0.06864 -0.741162,0.178758 -3.013834,1.20898 -4.63279,2.581266 -8.097611,3.026867 -2.028791,0.260916 -4.9393725,0.313239 -6.964679,0.06234 C 5.0330586,19.108156 3.9999752,20.05647 4,21.285505 v 8.681023 c 3.346e-4,1.146929 0.9058541,2.066777 2.0008851,2.032547 3.1414633,-0.242247 6.3813299,-0.636972 9.3209559,-1.677377 0,0 8.678159,-2.917902 8.678159,-12.286942 3.58e-4,-1.146913 -0.904584,-2.067354 -1.999621,-2.033872 z"/>
 <circle style="opacity:0.2" cx="21" cy="21" r="2"/>
 <circle style="fill:#ffffff" cx="21" cy="20" r="2"/>
</svg>
